svgs/regular/face-expressionless.svg

<svg xmlns="http://www.w3.org/2000/svg" viewBox="0 0 512 512"><!--! Font Awesome Pro 6.3.0 by @fontawesome - https://fontawesome.com License - https://fontawesome.com/license (Commercial License) Copyright 2023 Fonticons, Inc. --><path d="M464 256A208 208 0 1 0 48 256a208 208 0 1 0 416 0zM0 256a256 256 0 1 1 512 0A256 256 0 1 1 0 256zm160 72H352c13.3 0 24 10.7 24 24s-10.7 24-24 24H160c-13.3 0-24-10.7-24-24s10.7-24 24-24zM128 208c0-8.8 7.2-16 16-16h64c8.8 0 16 7.2 16 16s-7.2 16-16 16H144c-8.8 0-16-7.2-16-16zm176-16h64c8.8 0 16 7.2 16 16s-7.2 16-16 16H304c-8.8 0-16-7.2-16-16s7.2-16 16-16z"/></svg>

<svg xmlns="http://www.w3.org/2000/svg" viewBox="0 0 512 512"><!--! Font Awesome Pro 6.2.0 by @fontawesome - https://fontawesome.com License - https://fontawesome.com/license (Commercial License) Copyright 2022 Fonticons, Inc. --><path d="M352 328C365.3 328 376 338.7 376 352C376 365.3 365.3 376 352 376H160C146.7 376 136 365.3 136 352C136 338.7 146.7 328 160 328H352zM128 208C128 199.2 135.2 192 144 192H208C216.8 192 224 199.2 224 208C224 216.8 216.8 224 208 224H144C135.2 224 128 216.8 128 208zM368 192C376.8 192 384 199.2 384 208C384 216.8 376.8 224 368 224H304C295.2 224 288 216.8 288 208C288 199.2 295.2 192 304 192H368zM512 256C512 397.4 397.4 512 256 512C114.6 512 0 397.4 0 256C0 114.6 114.6 0 256 0C397.4 0 512 114.6 512 256zM256 48C141.1 48 48 141.1 48 256C48 370.9 141.1 464 256 464C370.9 464 464 370.9 464 256C464 141.1 370.9 48 256 48z"/></svg>
